icons/python/python-plain.svg

<svg xmlns="http://www.w3.org/2000/svg" viewBox="0 0 128 128"><path fill="#FFD845" d="M49.33 62h29.159c8.117 0 14.511-6.868 14.511-15.019v-27.798c0-7.912-6.632-13.856-14.555-15.176-5.014-.835-10.195-1.215-15.187-1.191-4.99.023-9.612.448-13.805 1.191-12.355 2.181-14.453 6.751-14.453 15.176v10.817h29v4h-40.224000000000004c-8.484 0-15.914 5.108-18.237 14.811-2.681 11.12-2.8 17.919 0 29.53 2.075 8.642 7.03 14.659 15.515 14.659h9.946v-13.048c0-9.637 8.428-17.952 18.33-17.952zm-1.838-39.11c-3.026 0-5.478-2.479-5.478-5.545 0-3.079 2.451-5.581 5.478-5.581 3.015 0 5.479 2.502 5.479 5.581-.001 3.066-2.465 5.545-5.479 5.545zM122.281 48.811c-2.098-8.448-6.103-14.811-14.599-14.811h-10.682v12.981c0 10.05-8.794 18.019-18.511 18.019h-29.159c-7.988 0-14.33 7.326-14.33 15.326v27.8c0 7.91 6.745 12.564 14.462 14.834 9.242 2.717 17.994 3.208 29.051 0 7.349-2.129 14.487-6.411 14.487-14.834v-11.126h-29v-4h43.682c8.484 0 11.647-5.776 14.599-14.66 3.047-9.145 2.916-17.799 0-29.529zm-41.955 55.606c3.027 0 5.479 2.479 5.479 5.547 0 3.076-2.451 5.579-5.479 5.579-3.015 0-5.478-2.502-5.478-5.579 0-3.068 2.463-5.547 5.478-5.547z"/></svg>

<svg version="1.1" xmlns="http://www.w3.org/2000/svg" xmlns:xlink="http://www.w3.org/1999/xlink" viewBox="0 0 128 128">
	<path fill="#FFD845" d="M49.33,62h29.159C86.606,62,93,55.132,93,46.981V19.183c0-7.912-6.632-13.856-14.555-15.176
		C73.431,3.172,68.25,2.792,63.258,2.816c-4.99,0.023-9.612,0.448-13.805,1.191C37.098,6.188,35,10.758,35,19.183V30h29v4H34.733
		H23.776c-8.484,0-15.914,5.108-18.237,14.811c-2.681,11.12-2.8,17.919,0,29.53C7.614,86.983,12.569,93,21.054,93H31V79.952
		C31,70.315,39.428,62,49.33,62z M47.492,22.89c-3.026,0-5.478-2.479-5.478-5.545c0-3.079,2.451-5.581,5.478-5.581
		c3.015,0,5.479,2.502,5.479,5.581C52.97,20.411,50.506,22.89,47.492,22.89z"/>
	<path fill="#FFD845" d="M122.281,48.811C120.183,40.363,116.178,34,107.682,34H97v12.981C97,57.031,88.206,65,78.489,65H49.33
		C41.342,65,35,72.326,35,80.326v27.8c0,7.91,6.745,12.564,14.462,14.834c9.242,2.717,17.994,3.208,29.051,0
		C85.862,120.831,93,116.549,93,108.126V97H64v-4h29.085h14.597c8.484,0,11.647-5.776,14.599-14.66
		C125.328,69.195,125.197,60.541,122.281,48.811z M80.326,104.417c3.027,0,5.479,2.479,5.479,5.547c0,3.076-2.451,5.579-5.479,5.579
		c-3.015,0-5.478-2.502-5.478-5.579C74.848,106.896,77.311,104.417,80.326,104.417z"/>
</svg>
